!!!COM:	Johannes Ockeghem
!!!CDT:	~1425-1497/02/06
!!!OTL:	L'autre d'antan
!!!AGN:	Chanson
!!!SCT:	Ock3009
!!!SCA:	Ock3009
!!!voices:	3
**kern	**kern	**kern
*staff3	*staff2	*staff1
*Ivox	*Ivox	*Ivox
*I"Contratenor	*I"Tenor	*I"Superius
*I'C	*I'T	*I'S
*clefGv2	*clefGv2	*clefG2
*k[]	*k[]	*k[]
*M3/1	*M3/1	*M3/1
*met(O3)	*met(O3)	*met(O3)
=1-	=1-	=1-
!	!	!LO:TX:Z=12:X=-40:t=O3 mensuration
1.D	0.r	0.r
2E/	.	.
1F	.	.
=2	=2	=2
1.G	1.G	0.r
4F/	2A/	.
4E/	.	.
1D	1B	.
=3	=3	=3
0C	0c	1.g
.	.	2a/
1r	1d	1b
=4	=4	=4
0C	0e	0cc
[1G	1d	1b
=5	=5	=5
1G]	1B	1g
0F	0c	0a
=6	=6	=6
1.G	1.B	0b
2F/	2c\	.
1D	1d	1r
=7	=7	=7
0d	0G	1b
.	.	1b
1e	1r	1cc
=8	=8	=8
1d	1G	0dd
0g	1G	.
.	1G	1dd
=9	=9	=9
1.f	0D	0dd
2d\	.	.
1e	1r	1cc
=10	=10	=10
0g	1r	1b
.	1r	0a
1f#i	1d	.
=11	=11	=11
0g	0e	0g
1f	1d	1r
=12	=12	=12
1e	1c	0.r
1d	0B	.
1r	.	.
=13	=13	=13
1.a	0.A	1cc
.	.	1cc
2g\	.	.
1f	.	1cc
=14	=14	=14
0e	1c	0g
.	1c	.
1e	1c	1a
=15	=15	=15
1d	0G	0b
0g	.	.
.	[1c	1a
=16	=16	=16
1.c	1c]	1g
.	0d	0f
2A/	.	.
1B	.	.
=17	=17	=17
1.c	0A	0.e
2d\	.	.
1e	1G	.
=18	=18	=18
0d	1F	0.r
.	0E	.
1c#i	.	.
=19	=19	=19
0.d;	0D;	0a;
.	1r	[1a
=20	=20	=20
1.c	1r	1a]
.	1r	1g
2B\	.	.
1A	1c	2f/
.	.	2e/
=21	=21	=21
1B	0d	0.d
0G	.	.
.	[1B	.
=22	=22	=22
1d	1B]	0g
1e	1c	.
1f	1A	1a
=23	=23	=23
1.g	1.G	0b
2f\	2A/	.
1d	1B	1g
=24	=24	=24
2r	1c	0a
1c	.	.
.	0A	.
2d\	.	.
2e\	.	1cc
2f\	.	.
=25	=25	=25
[0.g	1G	1dd
.	0c	1.ee
.	.	2cc\
=26	=26	=26
1g]	1e	0cc
0f	0d	.
.	.	1b
=27	=27	=27
0.g	0c	0cc
.	1c	1r
=28	=28	=28
0.r	0c	0ee
.	[1B	1dd
=29	=29	=29
1.G	2B\]	1b
.	2c\	.
.	1d	2b\
2A/	.	2cc\
1B	1G	1dd
=30	=30	=30
1c	0c	1g
0A	.	0cc
.	1A	.
=31	=31	=31
1.D	0d	1b
.	.	0a
2E/	.	.
1F	1d	.
=32	=32	=32
1.G	1.G	0b
4F/	2A/	.
4E/	.	.
1D	1B	1r
=33	=33	=33
1C	1c	1.g
0G	1d	.
.	.	2a/
.	2c\	1b
.	2B\	.
=34	=34	=34
1F	0A	0cc
1c	.	.
1d	1G	1b
=35	=35	=35
1e	2F/	1g
.	2E/	.
1f	1D	0a
2e\	1A	.
2d\	.	.
=36	=36	=36
0d	1B	0g
.	0A	.
1c	.	1f#i
=37	=37	=37
0.dl	0.Gl	0.gl
==	==	==
*-	*-	*-
!!!RDF**kern: l=long note in original notation
!!!RDF**kern: i=editorial accidental
!!!RDF**kern: V=start of tuplet marker
!!!RDF**kern: Z=end of tuplet marker
!!!ENC:	Chris Gage 06-25-2012
!!!END:	2012/06/30/
!!!EED:	Jesse Rodin
!!!EEV:	2012/07/16/
!!!ONB:	Translated from MusicXML and edited on 2012/07/16/ by Craig Sapp
!!muse2ps: C^@{COM}^i2I150v85,85,150Q16
